app/images/dist/intro-flot/intro__flot-4.svg

<svg width="1440" height="810" fill="none" xmlns="http://www.w3.org/2000/svg"><path d="M434.667 527.667a.667.667 0 01.666.667v2.8l3.476-2.434a.33.33 0 01.345-.022.33.33 0 01.179.296v8.053a.33.33 0 01-.179.296.335.335 0 01-.345-.023l-3.476-2.433v2.8a.665.665 0 01-.666.667h-9.334a.668.668 0 01-.666-.667v-9.333a.668.668 0 01.666-.667h9.334zm-5.734 3.219a.27.27 0 00-.261.214l-.005.052v3.695a.267.267 0 00.234.265c.043.005.087 0 .127-.016l.049-.024 2.903-1.848a.25.25 0 00.083-.085.264.264 0 00-.041-.331l-.042-.033-2.903-1.848a.27.27 0 00-.144-.041zm19.813 7.282c-1.241 0-2.207-.42-2.898-1.26-.691-.849-1.036-2.095-1.036-3.738 0-1.642.345-2.902 1.036-3.78.691-.886 1.657-1.33 2.898-1.33.821 0 1.507.187 2.058.56.56.374.994.901 1.302 1.582l-.952.574a2.67 2.67 0 00-.896-1.204c-.401-.308-.905-.462-1.512-.462-.42 0-.798.08-1.134.238a2.377 2.377 0 00-.84.686c-.224.29-.397.64-.518 1.05a4.703 4.703 0 00-.182 1.358v1.456c0 1.008.233 1.797.7 2.366.467.57 1.125.854 1.974.854.625 0 1.148-.158 1.568-.476.42-.326.728-.756.924-1.288l.938.588c-.308.691-.751 1.237-1.33 1.638-.579.392-1.279.588-2.1.588zm11.509-.168l-.98-2.884h-3.948l-.98 2.884h-1.19l3.416-9.772h1.498l3.416 9.772h-1.232zm-2.926-8.68h-.07l-1.652 4.76h3.374l-1.652-4.76zm13.533.448h-.07l-.826 1.638-2.338 4.256-2.338-4.256-.826-1.638h-.07V538h-1.148v-9.772h1.568l2.8 5.264h.07l2.814-5.264h1.512V538h-1.148v-8.232zM484.356 538h-6.412v-1.204l3.192-2.94c.457-.42.84-.863 1.148-1.33.308-.476.462-.952.462-1.428v-.168c0-.541-.149-.98-.448-1.316-.299-.336-.751-.504-1.358-.504-.299 0-.56.042-.784.126-.224.084-.42.201-.588.35-.159.15-.294.327-.406.532a3.27 3.27 0 00-.252.644l-1.05-.406c.093-.289.219-.569.378-.84.168-.28.373-.527.616-.742.252-.214.551-.387.896-.518.355-.13.77-.196 1.246-.196s.901.07 1.274.21c.373.14.686.336.938.588.252.252.443.551.574.896.14.346.21.728.21 1.148 0 .383-.056.738-.168 1.064-.103.327-.247.64-.434.938-.187.29-.415.574-.686.854-.261.28-.546.56-.854.84l-2.632 2.366h5.138V538zm-80.689-220.333a.667.667 0 01.666.667v2.8l3.476-2.434a.33.33 0 01.345-.022.33.33 0 01.179.296v8.053a.33.33 0 01-.179.296.335.335 0 01-.345-.023l-3.476-2.433v2.8a.665.665 0 01-.666.667h-9.334a.668.668 0 01-.666-.667v-9.333a.668.668 0 01.666-.667h9.334zm-5.734 3.219a.27.27 0 00-.261.214l-.005.052v3.695a.267.267 0 00.234.265c.043.005.087 0 .127-.016l.049-.024 2.903-1.848a.25.25 0 00.083-.085.264.264 0 00-.041-.331l-.042-.033-2.903-1.848a.27.27 0 00-.144-.041zm19.813 7.282c-1.241 0-2.207-.42-2.898-1.26-.691-.849-1.036-2.095-1.036-3.738 0-1.642.345-2.902 1.036-3.78.691-.886 1.657-1.33 2.898-1.33.821 0 1.507.187 2.058.56.56.374.994.901 1.302 1.582l-.952.574a2.67 2.67 0 00-.896-1.204c-.401-.308-.905-.462-1.512-.462-.42 0-.798.08-1.134.238a2.377 2.377 0 00-.84.686c-.224.29-.397.64-.518 1.05a4.703 4.703 0 00-.182 1.358v1.456c0 1.008.233 1.797.7 2.366.467.57 1.125.854 1.974.854.625 0 1.148-.158 1.568-.476.42-.326.728-.756.924-1.288l.938.588c-.308.691-.751 1.237-1.33 1.638-.579.392-1.279.588-2.1.588zm11.509-.168l-.98-2.884h-3.948l-.98 2.884h-1.19l3.416-9.772h1.498l3.416 9.772h-1.232zm-2.926-8.68h-.07l-1.652 4.76h3.374l-1.652-4.76zm13.533.448h-.07l-.826 1.638-2.338 4.256-2.338-4.256-.826-1.638h-.07V328h-1.148v-9.772h1.568l2.8 5.264h.07l2.814-5.264h1.512V328h-1.148v-8.232zm7.264 8.232v-1.036h2.73v-7.868h-.098l-2.464 2.296-.686-.742 2.59-2.422h1.834v8.736h2.52V328h-6.426zm455.541 11.667a.667.667 0 01.666.667v2.8l3.476-2.434a.33.33 0 01.345-.022.33.33 0 01.179.296v8.053a.33.33 0 01-.179.296.335.335 0 01-.345-.023l-3.476-2.433v2.8a.665.665 0 01-.666.667h-9.334a.668.668 0 01-.666-.667v-9.333a.668.668 0 01.666-.667h9.334zm-5.734 3.219a.27.27 0 00-.261.214l-.005.052v3.695a.267.267 0 00.234.265c.043.005.087 0 .127-.016l.049-.024 2.903-1.848a.25.25 0 00.083-.085.264.264 0 00-.041-.331l-.042-.033-2.903-1.848a.27.27 0 00-.144-.041zm19.813 7.282c-1.241 0-2.207-.42-2.898-1.26-.691-.849-1.036-2.095-1.036-3.738 0-1.642.345-2.902 1.036-3.78.691-.886 1.657-1.33 2.898-1.33.821 0 1.507.187 2.058.56.56.374.994.901 1.302 1.582l-.952.574a2.67 2.67 0 00-.896-1.204c-.401-.308-.905-.462-1.512-.462-.42 0-.798.08-1.134.238a2.377 2.377 0 00-.84.686c-.224.29-.397.64-.518 1.05a4.703 4.703 0 00-.182 1.358v1.456c0 1.008.233 1.797.7 2.366.467.57 1.125.854 1.974.854.625 0 1.148-.158 1.568-.476.42-.326.728-.756.924-1.288l.938.588c-.308.691-.751 1.237-1.33 1.638-.579.392-1.279.588-2.1.588zm11.509-.168l-.98-2.884h-3.948l-.98 2.884h-1.19l3.416-9.772h1.498l3.416 9.772h-1.232zm-2.926-8.68h-.07l-1.652 4.76h3.374l-1.652-4.76zm13.533.448h-.07l-.826 1.638-2.338 4.256-2.338-4.256-.826-1.638h-.07V350h-1.148v-9.772h1.568l2.8 5.264h.07l2.814-5.264h1.512V350h-1.148v-8.232zM950.144 350v-1.918h-4.718v-1.036l4.088-6.818h1.75v6.874h1.414v.98h-1.414V350h-1.12zm-3.612-2.898h3.612v-5.964h-.07l-3.542 5.964zM682.667 530.667a.667.667 0 01.666.667v2.8l3.476-2.434a.33.33 0 01.345-.022.33.33 0 01.179.296v8.053a.33.33 0 01-.179.296.335.335 0 01-.345-.023l-3.476-2.433v2.8a.665.665 0 01-.666.667h-9.334a.668.668 0 01-.666-.667v-9.333a.668.668 0 01.666-.667h9.334zm-5.734 3.219a.27.27 0 00-.261.214l-.005.052v3.695a.267.267 0 00.234.265c.043.005.087 0 .127-.016l.049-.024 2.903-1.848a.25.25 0 00.083-.085.264.264 0 00-.041-.331l-.042-.033-2.903-1.848a.27.27 0 00-.144-.041zm19.813 7.282c-1.241 0-2.207-.42-2.898-1.26-.691-.849-1.036-2.095-1.036-3.738 0-1.642.345-2.902 1.036-3.78.691-.886 1.657-1.33 2.898-1.33.821 0 1.507.187 2.058.56.56.374.994.901 1.302 1.582l-.952.574a2.67 2.67 0 00-.896-1.204c-.401-.308-.905-.462-1.512-.462-.42 0-.798.08-1.134.238a2.377 2.377 0 00-.84.686c-.224.29-.397.64-.518 1.05a4.703 4.703 0 00-.182 1.358v1.456c0 1.008.233 1.797.7 2.366.467.57 1.125.854 1.974.854.625 0 1.148-.158 1.568-.476.42-.326.728-.756.924-1.288l.938.588c-.308.691-.751 1.237-1.33 1.638-.579.392-1.279.588-2.1.588zm11.509-.168l-.98-2.884h-3.948l-.98 2.884h-1.19l3.416-9.772h1.498l3.416 9.772h-1.232zm-2.926-8.68h-.07l-1.652 4.76h3.374l-1.652-4.76zm13.533.448h-.07l-.826 1.638-2.338 4.256-2.338-4.256-.826-1.638h-.07V541h-1.148v-9.772h1.568l2.8 5.264h.07l2.814-5.264h1.512V541h-1.148v-8.232zm9.686 2.604c.663 0 1.157-.149 1.484-.448.336-.308.504-.7.504-1.176v-.098c0-.513-.163-.896-.49-1.148-.317-.261-.737-.392-1.26-.392-.504 0-.915.112-1.232.336a2.494 2.494 0 00-.784.882l-.868-.672c.121-.196.266-.387.434-.574a3.044 3.044 0 011.428-.882c.308-.093.658-.14 1.05-.14.411 0 .798.056 1.162.168.364.103.677.262.938.476.271.206.481.462.63.77.159.308.238.658.238 1.05 0 .318-.051.602-.154.854a2.009 2.009 0 01-.392.658 2.324 2.324 0 01-.602.476 2.752 2.752 0 01-.728.294v.056c.261.056.513.15.756.28.252.122.471.285.658.49.196.196.35.439.462.728.121.28.182.602.182.966 0 .42-.079.808-.238 1.162a2.637 2.637 0 01-.672.896 3.23 3.23 0 01-1.05.574c-.411.14-.863.21-1.358.21a4.06 4.06 0 01-1.12-.14 3.316 3.316 0 01-.868-.378 3.804 3.804 0 01-.672-.532 5.103 5.103 0 01-.504-.616l.882-.672c.121.196.252.374.392.532a2.34 2.34 0 001.092.672c.224.056.485.084.784.084.691 0 1.213-.154 1.568-.462.355-.317.532-.765.532-1.344v-.112c0-.578-.177-1.022-.532-1.33-.355-.317-.877-.476-1.568-.476h-1.148v-1.022h1.064z" fill="#BFDDDC"/><path d="M608.155 433.08l-278.16 87.99 95.085-183.075 183.075 95.085z" fill="url(#paint0_linear)"/><path d="M408.5 345l223.435 129-176.218 47.217L408.5 345z" fill="url(#paint1_linear)"/><path d="M561 386h284L703 528 561 386z" fill="url(#paint2_linear)"/><path d="M979.951 549.976L734 407.976 927.976 356l51.975 193.976z" fill="url(#paint3_linear)"/><defs><linearGradient id="paint0_linear" x1="425.08" y1="337.995" x2="469.075" y2="477.075" gradientUnits="userSpaceOnUse"><stop stop-color="#DFEEEE" stop-opacity=".4"/><stop offset="1" stop-color="#DFEEEE" stop-opacity="0"/></linearGradient><linearGradient id="paint1_linear" x1="455.717" y1="521.217" x2="520.217" y2="409.5" gradientUnits="userSpaceOnUse"><stop stop-color="#DFEEEE" stop-opacity=".4"/><stop offset="1" stop-color="#DFEEEE" stop-opacity="0"/></linearGradient><linearGradient id="paint2_linear" x1="703" y1="528" x2="703" y2="386" gradientUnits="userSpaceOnUse"><stop stop-color="#DFEEEE" stop-opacity=".4"/><stop offset="1" stop-color="#DFEEEE" stop-opacity="0"/></linearGradient><linearGradient id="paint3_linear" x1="927.976" y1="356" x2="856.976" y2="478.976" gradientUnits="userSpaceOnUse"><stop stop-color="#DFEEEE" stop-opacity=".4"/><stop offset="1" stop-color="#DFEEEE" stop-opacity="0"/></linearGradient></defs></svg>

<svg width="1440" height="810" viewBox="0 0 1440 810" fill="none" xmlns="http://www.w3.org/2000/svg">
<path d="M434.667 527.667C434.843 527.667 435.013 527.737 435.138 527.862C435.263 527.987 435.333 528.157 435.333 528.334V531.134L438.809 528.7C438.859 528.665 438.917 528.645 438.978 528.641C439.039 528.637 439.1 528.649 439.154 528.678C439.208 528.706 439.253 528.748 439.285 528.801C439.317 528.853 439.333 528.913 439.333 528.974V537.027C439.333 537.088 439.317 537.148 439.285 537.2C439.253 537.252 439.208 537.295 439.154 537.323C439.1 537.351 439.039 537.364 438.978 537.36C438.917 537.356 438.859 537.335 438.809 537.3L435.333 534.867V537.667C435.333 537.844 435.263 538.013 435.138 538.138C435.013 538.263 434.843 538.334 434.667 538.334H425.333C425.157 538.334 424.987 538.263 424.862 538.138C424.737 538.013 424.667 537.844 424.667 537.667V528.334C424.667 528.157 424.737 527.987 424.862 527.862C424.987 527.737 425.157 527.667 425.333 527.667H434.667ZM428.933 530.886C428.872 530.886 428.812 530.908 428.765 530.946C428.717 530.985 428.684 531.039 428.672 531.1L428.667 531.152V534.847C428.667 534.89 428.677 534.933 428.697 534.971C428.717 535.009 428.746 535.042 428.782 535.067C428.817 535.091 428.858 535.107 428.901 535.112C428.944 535.117 428.988 535.112 429.028 535.096L429.077 535.072L431.98 533.224C432.014 533.203 432.042 533.174 432.063 533.139C432.085 533.105 432.098 533.066 432.102 533.026C432.106 532.986 432.101 532.946 432.087 532.908C432.073 532.871 432.051 532.836 432.022 532.808L431.98 532.775L429.077 530.927C429.034 530.9 428.984 530.886 428.933 530.886Z" fill="#BFDDDC"/>
<path d="M448.746 538.168C447.505 538.168 446.539 537.748 445.848 536.908C445.157 536.059 444.812 534.813 444.812 533.17C444.812 531.528 445.157 530.268 445.848 529.39C446.539 528.504 447.505 528.06 448.746 528.06C449.567 528.06 450.253 528.247 450.804 528.62C451.364 528.994 451.798 529.521 452.106 530.202L451.154 530.776C450.958 530.272 450.659 529.871 450.258 529.572C449.857 529.264 449.353 529.11 448.746 529.11C448.326 529.11 447.948 529.19 447.612 529.348C447.285 529.507 447.005 529.736 446.772 530.034C446.548 530.324 446.375 530.674 446.254 531.084C446.133 531.486 446.072 531.938 446.072 532.442V533.898C446.072 534.906 446.305 535.695 446.772 536.264C447.239 536.834 447.897 537.118 448.746 537.118C449.371 537.118 449.894 536.96 450.314 536.642C450.734 536.316 451.042 535.886 451.238 535.354L452.176 535.942C451.868 536.633 451.425 537.179 450.846 537.58C450.267 537.972 449.567 538.168 448.746 538.168Z" fill="#BFDDDC"/>
<path d="M460.255 538L459.275 535.116H455.327L454.347 538H453.157L456.573 528.228H458.071L461.487 538H460.255ZM457.329 529.32H457.259L455.607 534.08H458.981L457.329 529.32Z" fill="#BFDDDC"/>
<path d="M470.862 529.768H470.792L469.966 531.406L467.628 535.662L465.29 531.406L464.464 529.768H464.394V538H463.246V528.228H464.814L467.614 533.492H467.684L470.498 528.228H472.01V538H470.862V529.768Z" fill="#BFDDDC"/>
<path d="M484.356 538H477.944V536.796L481.136 533.856C481.593 533.436 481.976 532.993 482.284 532.526C482.592 532.05 482.746 531.574 482.746 531.098V530.93C482.746 530.389 482.597 529.95 482.298 529.614C481.999 529.278 481.547 529.11 480.94 529.11C480.641 529.11 480.38 529.152 480.156 529.236C479.932 529.32 479.736 529.437 479.568 529.586C479.409 529.736 479.274 529.913 479.162 530.118C479.059 530.314 478.975 530.529 478.91 530.762L477.86 530.356C477.953 530.067 478.079 529.787 478.238 529.516C478.406 529.236 478.611 528.989 478.854 528.774C479.106 528.56 479.405 528.387 479.75 528.256C480.105 528.126 480.52 528.06 480.996 528.06C481.472 528.06 481.897 528.13 482.27 528.27C482.643 528.41 482.956 528.606 483.208 528.858C483.46 529.11 483.651 529.409 483.782 529.754C483.922 530.1 483.992 530.482 483.992 530.902C483.992 531.285 483.936 531.64 483.824 531.966C483.721 532.293 483.577 532.606 483.39 532.904C483.203 533.194 482.975 533.478 482.704 533.758C482.443 534.038 482.158 534.318 481.85 534.598L479.218 536.964H484.356V538Z" fill="#BFDDDC"/>
<path d="M403.667 317.667C403.843 317.667 404.013 317.737 404.138 317.862C404.263 317.987 404.333 318.157 404.333 318.334V321.134L407.809 318.7C407.859 318.665 407.917 318.645 407.978 318.641C408.039 318.637 408.1 318.649 408.154 318.678C408.208 318.706 408.253 318.748 408.285 318.801C408.317 318.853 408.333 318.913 408.333 318.974V327.027C408.333 327.088 408.317 327.148 408.285 327.2C408.253 327.252 408.208 327.295 408.154 327.323C408.1 327.351 408.039 327.364 407.978 327.36C407.917 327.356 407.859 327.335 407.809 327.3L404.333 324.867V327.667C404.333 327.844 404.263 328.013 404.138 328.138C404.013 328.263 403.843 328.334 403.667 328.334H394.333C394.157 328.334 393.987 328.263 393.862 328.138C393.737 328.013 393.667 327.844 393.667 327.667V318.334C393.667 318.157 393.737 317.987 393.862 317.862C393.987 317.737 394.157 317.667 394.333 317.667H403.667ZM397.933 320.886C397.872 320.886 397.812 320.908 397.765 320.946C397.717 320.985 397.684 321.039 397.672 321.1L397.667 321.152V324.847C397.667 324.89 397.677 324.933 397.697 324.971C397.717 325.009 397.746 325.042 397.782 325.067C397.817 325.091 397.858 325.107 397.901 325.112C397.944 325.117 397.988 325.112 398.028 325.096L398.077 325.072L400.98 323.224C401.014 323.203 401.042 323.174 401.063 323.139C401.085 323.105 401.098 323.066 401.102 323.026C401.106 322.986 401.101 322.946 401.087 322.908C401.073 322.871 401.051 322.836 401.022 322.808L400.98 322.775L398.077 320.927C398.034 320.9 397.984 320.886 397.933 320.886Z" fill="#BFDDDC"/>
<path d="M417.746 328.168C416.505 328.168 415.539 327.748 414.848 326.908C414.157 326.059 413.812 324.813 413.812 323.17C413.812 321.528 414.157 320.268 414.848 319.39C415.539 318.504 416.505 318.06 417.746 318.06C418.567 318.06 419.253 318.247 419.804 318.62C420.364 318.994 420.798 319.521 421.106 320.202L420.154 320.776C419.958 320.272 419.659 319.871 419.258 319.572C418.857 319.264 418.353 319.11 417.746 319.11C417.326 319.11 416.948 319.19 416.612 319.348C416.285 319.507 416.005 319.736 415.772 320.034C415.548 320.324 415.375 320.674 415.254 321.084C415.133 321.486 415.072 321.938 415.072 322.442V323.898C415.072 324.906 415.305 325.695 415.772 326.264C416.239 326.834 416.897 327.118 417.746 327.118C418.371 327.118 418.894 326.96 419.314 326.642C419.734 326.316 420.042 325.886 420.238 325.354L421.176 325.942C420.868 326.633 420.425 327.179 419.846 327.58C419.267 327.972 418.567 328.168 417.746 328.168Z" fill="#BFDDDC"/>
<path d="M429.255 328L428.275 325.116H424.327L423.347 328H422.157L425.573 318.228H427.071L430.487 328H429.255ZM426.329 319.32H426.259L424.607 324.08H427.981L426.329 319.32Z" fill="#BFDDDC"/>
<path d="M439.862 319.768H439.792L438.966 321.406L436.628 325.662L434.29 321.406L433.464 319.768H433.394V328H432.246V318.228H433.814L436.614 323.492H436.684L439.498 318.228H441.01V328H439.862V319.768Z" fill="#BFDDDC"/>
<path d="M447.126 328V326.964H449.856V319.096H449.758L447.294 321.392L446.608 320.65L449.198 318.228H451.032V326.964H453.552V328H447.126Z" fill="#BFDDDC"/>
<path d="M902.667 339.667C902.843 339.667 903.013 339.737 903.138 339.862C903.263 339.987 903.333 340.157 903.333 340.334V343.134L906.809 340.7C906.859 340.665 906.917 340.645 906.978 340.641C907.039 340.637 907.1 340.649 907.154 340.678C907.208 340.706 907.253 340.748 907.285 340.801C907.317 340.853 907.333 340.913 907.333 340.974V349.027C907.333 349.088 907.317 349.148 907.285 349.2C907.253 349.252 907.208 349.295 907.154 349.323C907.1 349.351 907.039 349.364 906.978 349.36C906.917 349.356 906.859 349.335 906.809 349.3L903.333 346.867V349.667C903.333 349.844 903.263 350.013 903.138 350.138C903.013 350.263 902.843 350.334 902.667 350.334H893.333C893.157 350.334 892.987 350.263 892.862 350.138C892.737 350.013 892.667 349.844 892.667 349.667V340.334C892.667 340.157 892.737 339.987 892.862 339.862C892.987 339.737 893.157 339.667 893.333 339.667H902.667ZM896.933 342.886C896.872 342.886 896.812 342.908 896.765 342.946C896.717 342.985 896.684 343.039 896.672 343.1L896.667 343.152V346.847C896.667 346.89 896.677 346.933 896.697 346.971C896.717 347.009 896.746 347.042 896.782 347.067C896.817 347.091 896.858 347.107 896.901 347.112C896.944 347.117 896.988 347.112 897.028 347.096L897.077 347.072L899.98 345.224C900.014 345.203 900.042 345.174 900.063 345.139C900.085 345.105 900.098 345.066 900.102 345.026C900.106 344.986 900.101 344.946 900.087 344.908C900.073 344.871 900.051 344.836 900.022 344.808L899.98 344.775L897.077 342.927C897.034 342.9 896.984 342.886 896.933 342.886Z" fill="#BFDDDC"/>
<path d="M916.746 350.168C915.505 350.168 914.539 349.748 913.848 348.908C913.157 348.059 912.812 346.813 912.812 345.17C912.812 343.528 913.157 342.268 913.848 341.39C914.539 340.504 915.505 340.06 916.746 340.06C917.567 340.06 918.253 340.247 918.804 340.62C919.364 340.994 919.798 341.521 920.106 342.202L919.154 342.776C918.958 342.272 918.659 341.871 918.258 341.572C917.857 341.264 917.353 341.11 916.746 341.11C916.326 341.11 915.948 341.19 915.612 341.348C915.285 341.507 915.005 341.736 914.772 342.034C914.548 342.324 914.375 342.674 914.254 343.084C914.133 343.486 914.072 343.938 914.072 344.442V345.898C914.072 346.906 914.305 347.695 914.772 348.264C915.239 348.834 915.897 349.118 916.746 349.118C917.371 349.118 917.894 348.96 918.314 348.642C918.734 348.316 919.042 347.886 919.238 347.354L920.176 347.942C919.868 348.633 919.425 349.179 918.846 349.58C918.267 349.972 917.567 350.168 916.746 350.168Z" fill="#BFDDDC"/>
<path d="M928.255 350L927.275 347.116H923.327L922.347 350H921.157L924.573 340.228H926.071L929.487 350H928.255ZM925.329 341.32H925.259L923.607 346.08H926.981L925.329 341.32Z" fill="#BFDDDC"/>
<path d="M938.862 341.768H938.792L937.966 343.406L935.628 347.662L933.29 343.406L932.464 341.768H932.394V350H931.246V340.228H932.814L935.614 345.492H935.684L938.498 340.228H940.01V350H938.862V341.768Z" fill="#BFDDDC"/>
<path d="M950.144 350V348.082H945.426V347.046L949.514 340.228H951.264V347.102H952.678V348.082H951.264V350H950.144ZM946.532 347.102H950.144V341.138H950.074L946.532 347.102Z" fill="#BFDDDC"/>
<path d="M682.667 530.667C682.843 530.667 683.013 530.737 683.138 530.862C683.263 530.987 683.333 531.157 683.333 531.334V534.134L686.809 531.7C686.859 531.665 686.917 531.645 686.978 531.641C687.039 531.637 687.1 531.649 687.154 531.678C687.208 531.706 687.253 531.748 687.285 531.801C687.317 531.853 687.333 531.913 687.333 531.974V540.027C687.333 540.088 687.317 540.148 687.285 540.2C687.253 540.252 687.208 540.295 687.154 540.323C687.1 540.351 687.039 540.364 686.978 540.36C686.917 540.356 686.859 540.335 686.809 540.3L683.333 537.867V540.667C683.333 540.844 683.263 541.013 683.138 541.138C683.013 541.263 682.843 541.334 682.667 541.334H673.333C673.157 541.334 672.987 541.263 672.862 541.138C672.737 541.013 672.667 540.844 672.667 540.667V531.334C672.667 531.157 672.737 530.987 672.862 530.862C672.987 530.737 673.157 530.667 673.333 530.667H682.667ZM676.933 533.886C676.872 533.886 676.812 533.908 676.765 533.946C676.717 533.985 676.684 534.039 676.672 534.1L676.667 534.152V537.847C676.667 537.89 676.677 537.933 676.697 537.971C676.717 538.009 676.746 538.042 676.782 538.067C676.817 538.091 676.858 538.107 676.901 538.112C676.944 538.117 676.988 538.112 677.028 538.096L677.077 538.072L679.98 536.224C680.014 536.203 680.042 536.174 680.063 536.139C680.085 536.105 680.098 536.066 680.102 536.026C680.106 535.986 680.101 535.946 680.087 535.908C680.073 535.871 680.051 535.836 680.022 535.808L679.98 535.775L677.077 533.927C677.034 533.9 676.984 533.886 676.933 533.886Z" fill="#BFDDDC"/>
<path d="M696.746 541.168C695.505 541.168 694.539 540.748 693.848 539.908C693.157 539.059 692.812 537.813 692.812 536.17C692.812 534.528 693.157 533.268 693.848 532.39C694.539 531.504 695.505 531.06 696.746 531.06C697.567 531.06 698.253 531.247 698.804 531.62C699.364 531.994 699.798 532.521 700.106 533.202L699.154 533.776C698.958 533.272 698.659 532.871 698.258 532.572C697.857 532.264 697.353 532.11 696.746 532.11C696.326 532.11 695.948 532.19 695.612 532.348C695.285 532.507 695.005 532.736 694.772 533.034C694.548 533.324 694.375 533.674 694.254 534.084C694.133 534.486 694.072 534.938 694.072 535.442V536.898C694.072 537.906 694.305 538.695 694.772 539.264C695.239 539.834 695.897 540.118 696.746 540.118C697.371 540.118 697.894 539.96 698.314 539.642C698.734 539.316 699.042 538.886 699.238 538.354L700.176 538.942C699.868 539.633 699.425 540.179 698.846 540.58C698.267 540.972 697.567 541.168 696.746 541.168Z" fill="#BFDDDC"/>
<path d="M708.255 541L707.275 538.116H703.327L702.347 541H701.157L704.573 531.228H706.071L709.487 541H708.255ZM705.329 532.32H705.259L703.607 537.08H706.981L705.329 532.32Z" fill="#BFDDDC"/>
<path d="M718.862 532.768H718.792L717.966 534.406L715.628 538.662L713.29 534.406L712.464 532.768H712.394V541H711.246V531.228H712.814L715.614 536.492H715.684L718.498 531.228H720.01V541H718.862V532.768Z" fill="#BFDDDC"/>
<path d="M728.548 535.372C729.211 535.372 729.705 535.223 730.032 534.924C730.368 534.616 730.536 534.224 730.536 533.748V533.65C730.536 533.137 730.373 532.754 730.046 532.502C729.729 532.241 729.309 532.11 728.786 532.11C728.282 532.11 727.871 532.222 727.554 532.446C727.237 532.661 726.975 532.955 726.77 533.328L725.902 532.656C726.023 532.46 726.168 532.269 726.336 532.082C726.513 531.886 726.719 531.714 726.952 531.564C727.185 531.415 727.456 531.294 727.764 531.2C728.072 531.107 728.422 531.06 728.814 531.06C729.225 531.06 729.612 531.116 729.976 531.228C730.34 531.331 730.653 531.49 730.914 531.704C731.185 531.91 731.395 532.166 731.544 532.474C731.703 532.782 731.782 533.132 731.782 533.524C731.782 533.842 731.731 534.126 731.628 534.378C731.535 534.63 731.404 534.85 731.236 535.036C731.068 535.223 730.867 535.382 730.634 535.512C730.41 535.643 730.167 535.741 729.906 535.806V535.862C730.167 535.918 730.419 536.012 730.662 536.142C730.914 536.264 731.133 536.427 731.32 536.632C731.516 536.828 731.67 537.071 731.782 537.36C731.903 537.64 731.964 537.962 731.964 538.326C731.964 538.746 731.885 539.134 731.726 539.488C731.567 539.834 731.343 540.132 731.054 540.384C730.765 540.627 730.415 540.818 730.004 540.958C729.593 541.098 729.141 541.168 728.646 541.168C728.226 541.168 727.853 541.122 727.526 541.028C727.199 540.935 726.91 540.809 726.658 540.65C726.406 540.492 726.182 540.314 725.986 540.118C725.799 539.922 725.631 539.717 725.482 539.502L726.364 538.83C726.485 539.026 726.616 539.204 726.756 539.362C726.905 539.521 727.069 539.656 727.246 539.768C727.423 539.88 727.624 539.969 727.848 540.034C728.072 540.09 728.333 540.118 728.632 540.118C729.323 540.118 729.845 539.964 730.2 539.656C730.555 539.339 730.732 538.891 730.732 538.312V538.2C730.732 537.622 730.555 537.178 730.2 536.87C729.845 536.553 729.323 536.394 728.632 536.394H727.484V535.372H728.548Z" fill="#BFDDDC"/>
<path d="M608.155 433.08L329.995 521.07L425.08 337.995L608.155 433.08Z" fill="url(#paint0_linear)"/>
<path d="M408.5 345L631.935 474L455.717 521.217L408.5 345Z" fill="url(#paint1_linear)"/>
<path d="M561 386L845 386L703 528L561 386Z" fill="url(#paint2_linear)"/>
<path d="M979.951 549.976L734 407.976L927.976 356L979.951 549.976Z" fill="url(#paint3_linear)"/>
<defs>
<linearGradient id="paint0_linear" x1="425.08" y1="337.995" x2="469.075" y2="477.075" gradientUnits="userSpaceOnUse">
<stop stop-color="#DFEEEE" stop-opacity="0.4"/>
<stop offset="1" stop-color="#DFEEEE" stop-opacity="0"/>
</linearGradient>
<linearGradient id="paint1_linear" x1="455.717" y1="521.217" x2="520.217" y2="409.5" gradientUnits="userSpaceOnUse">
<stop stop-color="#DFEEEE" stop-opacity="0.4"/>
<stop offset="1" stop-color="#DFEEEE" stop-opacity="0"/>
</linearGradient>
<linearGradient id="paint2_linear" x1="703" y1="528" x2="703" y2="386" gradientUnits="userSpaceOnUse">
<stop stop-color="#DFEEEE" stop-opacity="0.4"/>
<stop offset="1" stop-color="#DFEEEE" stop-opacity="0"/>
</linearGradient>
<linearGradient id="paint3_linear" x1="927.976" y1="356" x2="856.976" y2="478.976" gradientUnits="userSpaceOnUse">
<stop stop-color="#DFEEEE" stop-opacity="0.4"/>
<stop offset="1" stop-color="#DFEEEE" stop-opacity="0"/>
</linearGradient>
</defs>
</svg>
